src/24/actions/im-gadugadu.svg

<svg xmlns="http://www.w3.org/2000/svg" viewBox="0 0 24 24">
  <defs id="defs3051">
    <style type="text/css" id="current-color-scheme">
      .ColorScheme-Text {
        color:#5d656b;
      }
      </style>
  </defs>
 <path style="fill:currentColor;fill-opacity:1;stroke:none" 
     d="M 11 4 L 11 6.0898438 C 10.086757 6.2421263 9.2459631 6.5958569 8.5234375 7.109375 L 7.0507812 5.6367188 L 5.6367188 7.0507812 L 7.109375 8.5234375 C 6.5958569 9.2459631 6.2421264 10.086757 6.0898438 11 L 4 11 L 4 13 L 6.0898438 13 C 6.2421264 13.913243 6.5958569 14.754038 7.109375 15.476562 L 5.6367188 16.949219 L 7.0507812 18.363281 L 8.5234375 16.890625 C 9.2459631 17.404143 10.086757 17.757874 11 17.910156 L 11 20 L 13 20 L 13 17.910156 C 13.913243 17.757874 14.754038 17.404143 15.476562 16.890625 L 16.949219 18.363281 L 18.363281 16.949219 L 16.890625 15.476562 C 17.404143 14.754039 17.757874 13.913243 17.910156 13 L 20 13 L 20 11 L 17.910156 11 C 17.757874 10.086757 17.404143 9.2459631 16.890625 8.5234375 L 18.363281 7.0507812 L 16.949219 5.6367188 L 15.476562 7.109375 C 14.754039 6.5958569 13.913243 6.2421264 13 6.0898438 L 13 4 L 11 4 z M 12 7 C 13.363958 7 14.593808 7.5442179 15.494141 8.4238281 L 15.576172 8.5058594 C 16.455783 9.4061923 17 10.636042 17 12 C 17 13.363958 16.455782 14.593808 15.576172 15.494141 L 15.494141 15.576172 C 14.593807 16.455783 13.363958 17 12 17 C 10.636042 17 9.406192 16.455782 8.5058594 15.576172 L 8.4238281 15.494141 C 7.5442176 14.593807 7 13.363958 7 12 C 7 10.636042 7.5442179 9.406192 8.4238281 8.5058594 L 8.5058594 8.4238281 C 9.4061923 7.5442176 10.636042 7 12 7 z M 10 10 C 9.446 10 9 10.446 9 11 C 9 11.554 9.446 12 10 12 C 10.554 12 11 11.554 11 11 C 11 10.446 10.554 10 10 10 z M 14 10 C 13.446 10 13 10.446 13 11 C 13 11.554 13.446 12 14 12 C 14.554 12 15 11.554 15 11 C 15 10.446 14.554 10 14 10 z M 9.0917969 12.726562 L 8.125 12.96875 A 4 4 0 0 0 12 16 A 4 4 0 0 0 15.876953 12.96875 L 14.90625 12.726562 A 3 3 0 0 1 12 15 A 3 3 0 0 1 9.0917969 12.726562 z "
     class="ColorScheme-Text"
     />
</svg>

<svg xmlns="http://www.w3.org/2000/svg" viewBox="0 0 24 24"><path d="M11 4v2.09a5.955 5.955 0 0 0-2.477 1.02L7.051 5.636 5.637 7.05l1.472 1.472A5.955 5.955 0 0 0 6.09 11H4v2h2.09a5.955 5.955 0 0 0 1.02 2.477l-1.473 1.472 1.414 1.414 1.472-1.472A5.955 5.955 0 0 0 11 17.91V20h2v-2.09a5.955 5.955 0 0 0 2.477-1.02l1.472 1.473 1.414-1.414-1.472-1.472A5.955 5.955 0 0 0 17.91 13H20v-2h-2.09a5.955 5.955 0 0 0-1.02-2.477l1.473-1.472-1.414-1.414-1.472 1.472A5.955 5.955 0 0 0 13 6.09V4h-2zm1 3a4.98 4.98 0 0 1 3.494 1.424l.082.082A4.98 4.98 0 0 1 17 12a4.98 4.98 0 0 1-1.424 3.494l-.082.082A4.98 4.98 0 0 1 12 17a4.98 4.98 0 0 1-3.494-1.424l-.082-.082A4.98 4.98 0 0 1 7 12a4.98 4.98 0 0 1 1.424-3.494l.082-.082A4.98 4.98 0 0 1 12 7zm-2 3c-.554 0-1 .446-1 1s.446 1 1 1 1-.446 1-1-.446-1-1-1zm4 0c-.554 0-1 .446-1 1s.446 1 1 1 1-.446 1-1-.446-1-1-1zm-4.908 2.727l-.967.242A4 4 0 0 0 12 16a4 4 0 0 0 3.877-3.031l-.97-.242A3 3 0 0 1 12 15a3 3 0 0 1-2.908-2.273z" fill="currentColor" color="#5d656b"/></svg>
